X:1
T: The Ivy Leaf
T: The Smoky Chimney
C:Zeke Backus
R:Reel
Q: 232
K:D
M:4/4
L:1/8
|:((3ABc) |dc de fd AF|GF GA BG E2|ef ge df ed|ca ec A2 Bc|
dc de fd AF|GF GA BG E2|ef ge df ed|cA Bc d2:|
|:g2|fe fg af d2|gf ga bg eg|fg af df ed|ca Bg A2 g2|
fe fg af df|gf ga bg eg|af ge fd ec|Ag fe d2:|
